.cache/img/_logos/logo-hyde.svg

<svg xmlns="http://www.w3.org/2000/svg" width="200" height="58" viewBox="0 0 200 58"><path d="M0 56.35V0h11.38v22.18h22.29V0h11.38v56.35H33.67V31.71H11.38v24.64zM69 56.35V32.63L48.4 0h13.34L75 22.29 88 0h13.1L80.38 32.71v23.64zM104.14 0h20.8a40.43 40.43 0 0 1 10.72 1.08 18.85 18.85 0 0 1 8.5 5.18 24.76 24.76 0 0 1 5.38 9.13 41.6 41.6 0 0 1 1.84 13.32 36.79 36.79 0 0 1-1.73 12 24.93 24.93 0 0 1-6 10 20 20 0 0 1-8 4.5 34.53 34.53 0 0 1-10.07 1.19h-21.44zm11.38 9.53v37.32H124a31.72 31.72 0 0 0 6.88-.53 10.55 10.55 0 0 0 4.61-2.32 11.88 11.88 0 0 0 3-5.44 36.69 36.69 0 0 0 1.15-10.32 33.64 33.64 0 0 0-1.15-10 13 13 0 0 0-3.23-5.46 10.86 10.86 0 0 0-5.26-2.71 51.4 51.4 0 0 0-9.34-.54zM157.14 56.35V0h41.78v9.53h-30.4V22h28.29v9.5h-28.29v15.35H200v9.5z" fill="#fff"/></svg>

<svg xmlns="http://www.w3.org/2000/svg" width="200" height="58" viewBox="0 0 200 58"><path d="M0,56.35V0H11.38V22.18H33.67V0H45.05V56.35H33.67V31.71H11.38V56.35Z" fill="#fff"/><path d="M69,56.35V32.63L48.4,0H61.74L75,22.29,88,0H101.1L80.38,32.71V56.35Z" fill="#fff"/><path d="M104.14,0h20.8a40.43,40.43,0,0,1,10.72,1.08,18.85,18.85,0,0,1,8.5,5.18,24.76,24.76,0,0,1,5.38,9.13,41.6,41.6,0,0,1,1.84,13.32,36.79,36.79,0,0,1-1.73,12,24.93,24.93,0,0,1-6,10,20,20,0,0,1-8,4.5,34.53,34.53,0,0,1-10.07,1.19H104.14Zm11.38,9.53V46.85H124a31.72,31.72,0,0,0,6.88-.53A10.55,10.55,0,0,0,135.49,44a11.88,11.88,0,0,0,3-5.44,36.69,36.69,0,0,0,1.15-10.32,33.64,33.64,0,0,0-1.15-10,13,13,0,0,0-3.23-5.46A10.86,10.86,0,0,0,130,10.07a51.4,51.4,0,0,0-9.34-.54Z" fill="#fff"/><path d="M157.14,56.35V0h41.78V9.53h-30.4V22h28.29v9.5H168.52V46.85H200v9.5Z" fill="#fff"/></svg>
